static/assets/img/icons/theme/files/folder-thunder.svg

<svg height="24" viewBox="0 0 24 24" width="24" xmlns="http://www.w3.org/2000/svg"><g fill="none" fill-rule="evenodd"><path d="m0 0h24v24h-24z" opacity="0"/><g fill="#000"><path d="m3.5 21h17c.8284271 0 1.5-.6715729 1.5-1.5v-11c0-.82842712-.6715729-1.5-1.5-1.5h-10.5l-2.56066017-2.56066017c-.28130457-.28130457-.66283544-.43933983-1.06066017-.43933983h-2.87867966c-.82842712 0-1.5.67157288-1.5 1.5v14c0 .8284271.67157288 1.5 1.5 1.5z" opacity=".3"/><path d="m12.6706167 18.7881514 3.2991282-4.9486922c.2297643-.3446465.1366339-.8102985-.2080126-1.0400629-.1232007-.0821337-.2679564-.1259623-.4160252-.1259623h-2.6864991v-2.97343419c0-.41421356-.3357865-.75-.75-.75-.2507649 0-.4849384.12532585-.6240377.33397485l-3.29912818 4.94869224c-.22976435.3446465-.13663394.8102985.20801257 1.0400628.12320064.0821338.26795641.1259623.41602515.1259623h2.68649916v2.9734343c0 .4142135.3357864.75.75.75.2507649 0 .4849384-.1253259.6240377-.3339749z" opacity=".3"/></g></g></svg>

<svg width="24px" height="24px" viewBox="0 0 24 24" version="1.1" xmlns="http://www.w3.org/2000/svg" xmlns:xlink="http://www.w3.org/1999/xlink">
    <title>Icon For Folder-thunder</title>
    <g stroke="none" stroke-width="1" fill="none" fill-rule="evenodd">
        <rect opacity="0" x="0" y="0" width="24" height="24"></rect>
        <path d="M3.5,21 L20.5,21 C21.3284271,21 22,20.3284271 22,19.5 L22,8.5 C22,7.67157288 21.3284271,7 20.5,7 L10,7 L7.43933983,4.43933983 C7.15803526,4.15803526 6.77650439,4 6.37867966,4 L3.5,4 C2.67157288,4 2,4.67157288 2,5.5 L2,19.5 C2,20.3284271 2.67157288,21 3.5,21 Z" fill="#000000" opacity="0.3"></path>
        <path d="M12.6706167,18.7881514 L15.9697449,13.8394592 C16.1995092,13.4948127 16.1063788,13.0291607 15.7617323,12.7993963 C15.6385316,12.7172626 15.4937759,12.673434 15.3457071,12.673434 L12.659208,12.673434 L12.659208,9.69999981 C12.659208,9.28578625 12.3234215,8.94999981 11.909208,8.94999981 C11.6584431,8.94999981 11.4242696,9.07532566 11.2851703,9.28397466 L7.98604212,14.2326669 C7.75627777,14.5773134 7.84940818,15.0429654 8.19405469,15.2727297 C8.31725533,15.3548635 8.4620111,15.398692 8.61007984,15.398692 L11.296579,15.398692 L11.296579,18.3721263 C11.296579,18.7863398 11.6323654,19.1221263 12.046579,19.1221263 C12.2973439,19.1221263 12.5315174,18.9968004 12.6706167,18.7881514 Z" fill="#000000" opacity="0.3"></path>
    </g>
</svg>
